X: 168
T: No_90_War_Song.krn
%%abc-version 2.0
%%abcx-abcm2ps-target-version 5.9.1 (29 Sep 2008)
%%abc-creator hum2abc beta
%%abcx-conversion-date 2020/08/10 18:54:57
%%gracespace 0 6 6
%%humdrum-veritas 966159768
%%humdrum-veritas-data 3853832399
%%linebreak <none>
%%barnumbers 0
L: 1/8
M: 3/4
%%staves {1 2}
V: 1 clef=bass
V: 2 clef=bass
K: Gb
[V:1] [K:clef=bass][M:3/4]B,<B, B,B,B,2 ||  
[V:2] [K:clef=bass][M:3/4](3!accent!G,, z G,, (3!accent!G,, z G,, (3!accent!G,, z G,, ||  
[V:1] [M:2/4]E<E B,B, | 
[V:2] [M:2/4]z4 | 
[V:1] B,>E, E,E, | 
[V:2] z4 | 
[V:1] G,<G, E,E, | 
[V:2] z4 | 
[V:1] E,2B,,/B,,3/- | 
[V:2] z4 | 
[V:1] B,,>A, A,A, | 
[V:2] z4 | 
[V:1] E,2E,E, ||  
[V:2] z4 ||  
[V:1] [M:3/4]G,<G, E,E,E,2 ||  
[V:2] [M:3/4]z6 ||  
[V:1] [M:2/4]E,3E, | 
[V:2] [M:2/4]z4 | 
[V:1] E,4- | 
[V:2] z4 | 
[V:1] E,4 |]  
[V:2] z4 |]  


